src/assets/study.svg

<svg width="40" height="40" viewBox="0 0 40 40" fill="none" xmlns="http://www.w3.org/2000/svg">
<path d="M5 6H14C15.5913 6 17.1174 6.65555 18.2426 7.82245C19.3679 8.98934 20 10.572 20 12.2222V34C20 32.7623 19.5259 31.5753 18.682 30.7002C17.8381 29.825 16.6935 29.3333 15.5 29.3333H5V6Z" stroke="white" stroke-width="3" stroke-linecap="round" stroke-linejoin="round"/>
<path d="M35 6H26C24.4087 6 22.8826 6.65555 21.7574 7.82245C20.6321 8.98934 20 10.572 20 12.2222V34C20 32.7623 20.4741 31.5753 21.318 30.7002C22.1619 29.825 23.3065 29.3333 24.5 29.3333H35V6Z" stroke="white" stroke-width="3" stroke-linecap="round" stroke-linejoin="round"/>
</svg>

<svg width="40" height="40" fill="none" xmlns="http://www.w3.org/2000/svg"><path d="M5 6h9c1.591 0 3.117.656 4.243 1.822a6.34 6.34 0 0 1 1.757 4.4V34a4.756 4.756 0 0 0-1.318-3.3 4.42 4.42 0 0 0-3.182-1.367H5V6Z" stroke="#fff" stroke-width="3" stroke-linecap="round" stroke-linejoin="round"/><path d="M35 6h-9a5.893 5.893 0 0 0-4.243 1.822 6.34 6.34 0 0 0-1.757 4.4V34c0-1.238.474-2.425 1.318-3.3a4.42 4.42 0 0 1 3.182-1.367H35V6Z" stroke="#fff" stroke-width="3" stroke-linecap="round" stroke-linejoin="round"/></svg>
